X:1
T:Laetare nunc Ecclesia 2
T:André Vierendeels
T:(28/02/18)
T:ad voces auquales
T:Early melody
T:Laetare nunc Ecclesia 2
T:©
T:©
T:©
C:André Vierendeels
Z:©
%%score [ 1 2 3 ]
L:1/8
Q:1/4=120
M:2/2
K:C
V:1 treble-8 nm="Tenor 1" snm="T 1"
V:2 treble-8 nm="Tenor 2" snm="T 2"
V:3 bass nm="Bass" snm="B"
V:1
 z4 c4 | c4 c4 | d4 c4 | f4 e4 | !fermata!d4 d4 | B4 c4 | d4 e4 | f2 e2 d4 |[M:2/4] !fermata!c4 :| %9
w: Lae-|ta- re|nunc Ec-|cle- si-|a, Chri-|sti per-|en- nis|spo- * *|sa,|
w: Mi-|ra- bi-|li vic-|to- ri-|a, de|mor- te|ri- te|par- * *|ta,|
 c4 |[M:2/2] c4 c4 | f6 e2 | d2 f2 e4 | !fermata!d4 d4 | d4 d4 | c4 d4 | B4 A4 | !fermata!G4 G4 | %18
w: so-|pi- ta|sunt jam|fa- * *|ta, quae|nos ma-|ne- bant|pes- si-|ma, et|
w: |||||||||
 c4 d4 | e2 f2 d4 | f2 e2 d4 | !fermata!c8 |] %22
w: vi- ta|ve- ra red-|di- * *|ta.|
w: ||||
V:2
 z4 E4 | F4 G4 | B4 A4 | A2 c2 G2 E2 | !fermata!^F4 A4 | D4 E4 | B4 c2 G2 | A4 B4 | %8
w: Lae-|ta- re|nunc Ec-|cle- * * si|a, Chri-|sti per-|en- * nis|spon- *|
w: Mi-|ra- bi-|li vic-|to- * * ri-|a, de|mor- te|ri- * te|par- *|
[M:2/4] !fermata!G4 :| E4 |[M:2/2] F2 A2 G4 | A4 G4 | B2 A2 c4 | !fermata!F4 A4 | _B2 G2 F2 A2- | %15
w: sa,|so-|pi- * ta|sunt jam|fa- * *|ta, quae|nos _ _ ma-|
w: ta,|||||||
 A2 G2 A2 ^F2 | G4 ^F4 | !fermata!D4 E4 | E4 D4 | c2 c2 B4 | c6 B2 | !fermata!G8 |] %22
w: * * ne- bant|pes- si-|ma, et|vi- ta|ve- ra red-|di- *|ta.|
w: |||||||
V:3
 z4 C,4 | F,,G,,A,,B,, C,4 | G,,4 F,,2 C,2 | D,2 F,2 C,2 C,2 | !fermata!D,4 D,4 | G,,4 C,4 | %6
w: Lae-|ta- * * * re|nunc Ec- cle-|* * * si-|a, Chri-|sti per-|
w: Mi-|ra- * * * bi-|li vic- to-|* * * ri-|a, de|mor- te|
 G,,4 C,4 | D,4 G,,4 |[M:2/4] !fermata!C,4 :| C,4 |[M:2/2] F,,G,,A,,B,, C,4 | F,,4 C,4 | %12
w: en- nis|spon- *|sa,|so-|pi- * * * ta|sunt jam|
w: ri- te|par- *|ta,||||
 G,,2 F,,2 A,,4 | !fermata!_B,,4 D,2 F,2 | G,4 D,4 | F,2 E,2 D,4 | G,,4 D,4 | !fermata!B,,4 C,4 | %18
w: fa- * *|ta, quae _|nos ma-|ne- * bant|pes- si-|ma, et|
w: ||||||
 C,4 G,,4 | C,2 F,2 G,4 | F,4 G,4 | !fermata!C,8 |] %22
w: vi- ta|ve- ra red-|di- *|ta.|
w: ||||

